img/slide4/1980.svg

<svg height="900" viewBox="0 0 300 900" width="300" xmlns="http://www.w3.org/2000/svg"><path d="m-161.160089 588.688525v-285.245902h-45.434062l-86.405849 61.674789 27.179305 41.995663 47.868029-35.909335v217.484785zm103.8537232 11.311475c22.1937921-4.192452 42.7298181-11.799721 61.60807504-22.821808 18.87825696-11.022086 34.98228866-24.51231 48.31209836-40.470671 13.3298097-15.958362 23.7500652-34.351046 31.2607695-55.17806 7.5107044-20.827013 11.2660566-42.871187 11.2660566-66.132526 0-9.602063-.8458011-18.866028-2.5374001-27.79189-1.6915991-8.925863-4.1951693-17.175524-7.5107044-24.748983-3.3155351-7.573458-7.2738793-14.605956-11.8750326-21.097493-4.6011532-6.491536-9.8451125-12.23925-15.7318808-17.243143-5.8867682-5.003894-12.2471835-9.263965-19.0812489-12.780212-6.8340654-3.516248-14.2094407-6.187246-22.1261291-8.012991-7.91668836-1.825744-16.07020179-2.738616-24.46053717-2.738616-14.20944073 0-27.60691333 2.332895-40.19241793 6.998687-12.5855047 4.665792-23.4455772 11.123517-32.5802176 19.373179-9.1346405 8.249662-16.3408568 18.291257-21.6186491 30.124786-5.277792 11.833529-7.916688 24.647552-7.916688 38.442067 0 11.49543 1.488607 22.145607 4.465824 31.95053 2.977217 9.804924 7.1385532 18.325065 12.4840085 25.560425 5.3454552 7.235359 11.6720405 13.456413 18.9797529 18.663167 7.3077123 5.206754 15.2920637 9.094912 23.9530572 11.664479 8.6609934 2.569568 17.7956339 3.85435 27.4039213 3.85435 19.35190391 0 37.0122088-4.462931 52.9809146-13.388794l.405984.202861c-8.1196804 20.150809-20.80668101 36.650133-38.06100185 49.497964-17.25432085 12.847832-39.27895395 22.990857-66.07389925 30.429077zm48.00420074-159.836066c-14.23927494 0-25.56288994-4.036177-33.97084174-12.108535-8.4079518-8.072359-12.6119293-18.485019-12.6119293-31.237988 0-12.617298 4.4073957-23.3013 13.2221839-32.052007 8.8147883-8.750706 20.3418214-13.12606 34.58109643-13.12606 14.1036618 0 25.73240407 5.460711 34.88622367 16.382137 9.1538197 10.921426 13.7307295 25.200677 13.7307295 42.837762v3.459581c-6.1025464 7.597512-13.5612153 13.804408-22.3760036 18.62069-8.8147882 4.816281-17.96860783 7.22442-27.46145886 7.22442zm240.79505306 152.459017c19.403012 0 36.974273-3.279714 52.713779-9.83914 15.739506-6.559425 28.256484-16.161886 37.550935-28.807377 9.294451-12.64549 13.941675-27.218238 13.941675-43.718237 0-18.663935-4.681146-34.487705-14.043439-47.471312-9.362293-12.983606-21.573979-22.247952-36.635058-27.793033v-.608606c9.633662-4.192624 17.978314-11.766394 25.033956-22.721312s10.583462-23.194671 10.583462-36.719262c0-15.282786-3.867034-28.604508-11.601102-39.965164s-18.283607-19.948769-31.64862-25.764344c-13.365014-5.815575-28.663541-8.723361-45.895588-8.723361-16.824991 0-31.852148 2.772542-45.081475 8.317623s-23.812788 14.031764-31.750384 25.460041c-7.937596 11.428278-11.906394 24.986682-11.906394 40.675205 0 13.524591 3.561742 25.798157 10.685225 36.820697 7.123484 11.02254 15.434214 18.5625 24.932193 22.619877v.608606c-14.925393 5.545081-27.035315 14.809427-36.329766 27.793033-9.294452 12.983607-13.941676 28.807377-13.941676 47.471312 0 16.229508 4.477619 30.633196 13.432855 43.211065 8.955237 12.577869 21.268687 22.247952 36.940351 29.010246s33.344687 10.143443 53.019071 10.143443zm.797594-180c-7.030586 0-13.28375-1.348247-18.759494-4.044737-5.475744-2.696491-9.768458-6.505287-12.878138-11.426383-3.109681-4.921096-4.664523-10.48261-4.664523-16.684541 0-5.932281 1.52104-11.392676 4.56312-16.381186s7.368593-8.965833 12.979541-11.931975c5.610949-2.966142 11.864112-4.449211 18.759494-4.449211 10.410673 0 19.097503 3.100964 26.060485 9.302896 6.962982 6.201931 10.444475 14.021754 10.444475 23.459476 0 9.437721-3.38009 17.156426-10.140267 23.15612-6.760177 5.999695-15.54841 8.999541-26.364693 8.999541zm-.390538 132.295082c-13.037492 0-24.003924-3.97641-32.899298-11.929229-8.895373-7.952818-13.343058-17.842862-13.343058-29.670131 0-12.235106 4.31188-22.295081 12.935637-30.179928 8.623757-7.884848 19.725997-11.82727 33.306719-11.82727 9.099085 0 17.145662 1.801279 24.139733 5.403839s12.42636 8.598561 16.296866 14.988005c3.870505 6.389443 5.805758 13.594563 5.805758 21.615354 0 11.419432-4.34583 21.207517-13.037492 29.364254-8.691663 8.156737-19.75995 12.235106-33.204865 12.235106zm248.820276 47.213115c22.701886 0 42.498472-6.119879 59.389755-18.359632s29.762442-29.314549 38.613476-51.224385 13.276549-47.403689 13.276549-76.481557c0-22.721312-2.702604-43.278688-8.107816-61.672131s-12.972507-33.743852-22.701886-46.05123c-9.72938-12.307378-21.45193-21.774589-35.167654-28.401639s-28.816532-9.940574-45.302424-9.940574c-17.026415 0-32.49883 3.516392-46.417249 10.54918s-25.607186 16.93955-35.066306 29.720287c-9.45912 12.780738-16.756155 28.198771-21.891104 46.254099-5.13495 18.055327-7.702426 37.902662-7.702426 59.542008 0 22.721311 2.702605 43.278687 8.107816 61.672131 5.405212 18.393444 12.972507 33.743851 22.701886 46.051229 9.72938 12.307379 21.41815 21.77459 35.066306 28.40164 13.648157 6.62705 28.715185 9.940574 45.201077 9.940574zm.695036-52.131148c-11.124503 0-20.756693-3.78365-28.896572-11.350948-8.13988-7.567297-14.312621-18.377726-18.518226-32.431279-4.205606-14.053553-6.308407-30.607019-6.308407-49.660396 0-29.863802 4.782179-52.903524 14.346538-69.119164 9.564358-16.215639 22.689914-24.323459 39.376667-24.323459 16.822419 0 29.947974 8.310515 39.376667 24.931546 9.428693 16.62103 14.143041 39.458057 14.143041 68.511077 0 29.863802-4.714348 52.903524-14.143041 69.119164-9.428693 16.215639-22.554248 24.323459-39.376667 24.323459z" fill="#fff" transform="matrix(0 -1 1 0 -300.5 599.5)"/></svg>

<?xml version="1.0" encoding="UTF-8"?>
<svg width="300px" height="900px" viewBox="0 0 300 900" version="1.1" xmlns="http://www.w3.org/2000/svg" xmlns:xlink="http://www.w3.org/1999/xlink">
    <title>1080</title>
    <g id="1080" stroke="none" stroke-width="1" fill="none" fill-rule="evenodd">
        <path d="M-161.160089,588.688525 L-161.160089,303.442623 L-206.594151,303.442623 L-293,365.117412 L-265.820695,407.113075 L-217.952666,371.20374 L-217.952666,588.688525 L-161.160089,588.688525 Z M-57.3063658,600 C-35.1125737,595.807548 -14.5765477,588.200279 4.30170924,577.178192 C23.1799662,566.156106 39.2839979,552.665882 52.6138076,536.707521 C65.9436173,520.749159 76.3638728,502.356475 83.8745771,481.529461 C91.3852815,460.702448 95.1406337,438.658274 95.1406337,415.396935 C95.1406337,405.794872 94.2948326,396.530907 92.6032336,387.605045 C90.9116345,378.679182 88.4080643,370.429521 85.0925292,362.856062 C81.7769941,355.282604 77.8186499,348.250106 73.2174966,341.758569 C68.6163434,335.267033 63.3723841,329.519319 57.4856158,324.515426 C51.5988476,319.511532 45.2384323,315.251461 38.4043669,311.735214 C31.5703015,308.218966 24.1949262,305.547968 16.2782378,303.722223 C8.36154944,301.896479 0.208036009,300.983607 -8.18229937,300.983607 C-22.3917401,300.983607 -35.7892127,303.316502 -48.3747173,307.982294 C-60.960222,312.648086 -71.8202945,319.105811 -80.9549349,327.355473 C-90.0895754,335.605135 -97.2957917,345.64673 -102.573584,357.480259 C-107.851376,369.313788 -110.490272,382.127811 -110.490272,395.922326 C-110.490272,407.417756 -109.001665,418.067933 -106.024448,427.872856 C-103.047231,437.67778 -98.8858948,446.197921 -93.5404395,453.433281 C-88.1949843,460.66864 -81.868399,466.889694 -74.5606866,472.096448 C-67.2529743,477.303202 -59.2686229,481.19136 -50.6076294,483.760927 C-41.946636,486.330495 -32.8119955,487.615277 -23.2037081,487.615277 C-3.85180419,487.615277 13.8085007,483.152346 29.7772065,474.226483 L30.1831905,474.429344 C22.0635101,494.580153 9.37650949,511.079477 -7.87781135,523.927308 C-25.1321322,536.77514 -47.1567653,546.918165 -73.9517106,554.356385 L-57.3063658,600 Z M-9.30216506,440.163934 C-23.54144,440.163934 -34.865055,436.127757 -43.2730068,428.055399 C-51.6809586,419.98304 -55.8849361,409.57038 -55.8849361,396.817411 C-55.8849361,384.200113 -51.4775404,373.516111 -42.6627522,364.765404 C-33.8479639,356.014698 -22.3209308,351.639344 -8.08165577,351.639344 C6.02200603,351.639344 17.6507483,357.100055 26.8045679,368.021481 C35.9583876,378.942907 40.5352974,393.222158 40.5352974,410.859243 L40.5352974,414.318824 C34.432751,421.916336 26.9740821,428.123232 18.1592938,432.939514 C9.3445056,437.755795 0.190685967,440.163934 -9.30216506,440.163934 Z M231.492888,592.622951 C250.8959,592.622951 268.467161,589.343237 284.206667,582.783811 C299.946173,576.224386 312.463151,566.621925 321.757602,553.976434 C331.052053,541.330944 335.699277,526.758196 335.699277,510.258197 C335.699277,491.594262 331.018131,475.770492 321.655838,462.786885 C312.293545,449.803279 300.081859,440.538933 285.02078,434.993852 L285.02078,434.385246 C294.654442,430.192622 302.999094,422.618852 310.054736,411.663934 C317.110378,400.709016 320.638198,388.469263 320.638198,374.944672 C320.638198,359.661886 316.771164,346.340164 309.037096,334.979508 C301.303028,323.618852 290.753489,315.030739 277.388476,309.215164 C264.023462,303.399589 248.724935,300.491803 231.492888,300.491803 C214.667897,300.491803 199.64074,303.264345 186.411413,308.809426 C173.182086,314.354507 162.598625,322.84119 154.661029,334.269467 C146.723433,345.697745 142.754635,359.256149 142.754635,374.944672 C142.754635,388.469263 146.316377,400.742829 153.43986,411.765369 C160.563344,422.787909 168.874074,430.327869 178.372053,434.385246 L178.372053,434.993852 C163.44666,440.538933 151.336738,449.803279 142.042287,462.786885 C132.747835,475.770492 128.100611,491.594262 128.100611,510.258197 C128.100611,526.487705 132.57823,540.891393 141.533466,553.469262 C150.488703,566.047131 162.802153,575.717214 178.473817,582.479508 C194.145481,589.241802 211.818504,592.622951 231.492888,592.622951 Z M232.290482,412.622951 C225.259896,412.622951 219.006732,411.274704 213.530988,408.578214 C208.055244,405.881723 203.76253,402.072927 200.65285,397.151831 C197.543169,392.230735 195.988327,386.669221 195.988327,380.46729 C195.988327,374.535009 197.509367,369.074614 200.551447,364.086104 C203.593527,359.097594 207.92004,355.120271 213.530988,352.154129 C219.141937,349.187987 225.3951,347.704918 232.290482,347.704918 C242.701155,347.704918 251.387985,350.805882 258.350967,357.007814 C265.313949,363.209745 268.795442,371.029568 268.795442,380.46729 C268.795442,389.905011 265.415352,397.623716 258.655175,403.62341 C251.894998,409.623105 243.106765,412.622951 232.290482,412.622951 Z M231.899944,544.918033 C218.862452,544.918033 207.89602,540.941623 199.000646,532.988804 C190.105273,525.035986 185.657588,515.145942 185.657588,503.318673 C185.657588,491.083567 189.969468,481.023592 198.593225,473.138745 C207.216982,465.253897 218.319222,461.311475 231.899944,461.311475 C240.999029,461.311475 249.045606,463.112754 256.039677,466.715314 C263.033748,470.317874 268.466037,475.313875 272.336543,481.703319 C276.207048,488.092762 278.142301,495.297882 278.142301,503.318673 C278.142301,514.738105 273.796471,524.52619 265.104809,532.682927 C256.413146,540.839664 245.344859,544.918033 231.899944,544.918033 Z M480.72022,592.131148 C503.422106,592.131148 523.218692,586.011269 540.109975,573.771516 C557.001258,561.531763 569.872417,544.456967 578.723451,522.547131 C587.574485,500.637295 592,475.143442 592,446.065574 C592,423.344262 589.297396,402.786886 583.892184,384.393443 C578.486972,366 570.919677,350.649591 561.190298,338.342213 C551.460918,326.034835 539.738368,316.567624 526.022644,309.940574 C512.30692,303.313524 497.206112,300 480.72022,300 C463.693805,300 448.22139,303.516392 434.302971,310.54918 C420.384552,317.581968 408.695785,327.48873 399.236665,340.269467 C389.777545,353.050205 382.48051,368.468238 377.345561,386.523566 C372.210611,404.578893 369.643135,424.426228 369.643135,446.065574 C369.643135,468.786885 372.34574,489.344261 377.750951,507.737705 C383.156163,526.131149 390.723458,541.481556 400.452837,553.788934 C410.182217,566.096313 421.870987,575.563524 435.519143,582.190574 C449.1673,588.817624 464.234328,592.131148 480.72022,592.131148 Z M481.415256,540 C470.290753,540 460.658563,536.21635 452.518684,528.649052 C444.378804,521.081755 438.206063,510.271326 434.000458,496.217773 C429.794852,482.16422 427.692051,465.610754 427.692051,446.557377 C427.692051,416.693575 432.47423,393.653853 442.038589,377.438213 C451.602947,361.222574 464.728503,353.114754 481.415256,353.114754 C498.237675,353.114754 511.36323,361.425269 520.791923,378.0463 C530.220616,394.66733 534.934964,417.504357 534.934964,446.557377 C534.934964,476.421179 530.220616,499.460901 520.791923,515.676541 C511.36323,531.89218 498.237675,540 481.415256,540 Z" id="1980-copy-2" fill="#FFFFFF" fill-rule="nonzero" transform="translate(149.500000, 450.000000) rotate(-90.000000) translate(-149.500000, -450.000000) "></path>
    </g>
</svg>
